X: 1
T: The Cameron Highlander
R: barndance
M: 4/4
L: 1/8
K: Dmaj
|a|:A2ec A2eA|f2e2 e2a2|A2ec A2eA|c2B2 B2c2|A2ec A2eA|f2e2 e2a2|faea caBa|c2A2 A2 a2:||:f2ea c2Aa|c2A2 A2a2|f2ea c2Aa|c2B2B2a2|f2ea c2Aa|ecac e2a2|faea ca Ba|1c2A2 A2 a2:|2c2A2 A2 ec||:AAec AecA|f2e2 e2a2|AAec AecA|c2B2 B2ec|AAec AecA|f2e2 e2a2|faea caBa|1c2A2 A2 ec:|2c2A2 A2a2||faea caAa|c2A2 A2a2|faea caAa|c2B2 B2a2|faea caAa|ecac efga|faea ca Ba|c2A2 A2a2|faea caBa|AaBa caAa|faea ca Aa|c2B2 B2ec|AAcA eAcA|eAfA gAaA|faea caBa|c2A2 A2a2||


Tune 2864	Setting 16074

